X:1
T:Gaziantep, 87.87 D repeat
T:Gaziantep, 87.87 D repeat
T:Anonymous, 1887
T:Public Domain Courtesy of the Cyber Hymnal™
C:Anonymous, 1887
Z:Public Domain
Z:Courtesy of the Cyber Hymnal™
%%score ( 1 2 ) ( 3 4 )
L:1/8
Q:1/4=95
M:3/4
K:Eb
V:1 treble 
V:2 treble 
V:3 bass 
V:4 bass 
V:1
 [Ge]>[Ge] | [Ad]2 [Ge]2 [Gc]>[Gc] | [F=B]2 [Ec]2 [DF][Dc] | [EB][Ee]!>(! [FA]2 [EG]2 | %4
 F4 D2!>)! [FA]>!<(![FA] | [EG]!<)![E=A] [DB][Fc] [Fd][Be] | [Bf]2 [DB]2 [Ec][Fd] | %7
 [Ge][Ec] [DB]2 =A2 | [DB]4 (3Bcd | [Ge]>[Ge] [Fd][FG] [Ec][GB] | [GB]>[FA] [FA]2 [FA][FA] | %11
 [Af]>[Ad] [GB][FA] GA | [EG]2 [DF]2 [DB][Fd] | [Ee]2 E2 EE | [DA]2 [EG]2 [FG][FG] | %15
 [Ge][Fd] c2 c2 | [DB]4!<(! BB!<)! | [Bg]2 [Be]2 [Af][Af] | [Ad]2 [Ge]2!>(! EE!>)! | %19
 [DA][EG] [EF]2!>(! [DF]2 | !fermata!E4!>)! |] %21
V:2
 x2 | x6 | x6 | x6 | E2 x6 | x6 | x6 | x4 CE | x6 | x6 | x6 | x4 E2 | x6 | x2 E2 EE | x6 | %15
 x2 EG FE | x4 BB | x6 | x4 EE | x6 | E4 |] %21
V:3
 [E,B,]>[G,B,] | [B,F]2 [CE]2 [C,E]>[E,E] | [G,D]2 [A,C]2 [A,B,][A,B,] | %3
 [G,B,][C,G,] [D,B,]2 [E,B,]2 | [B,,B,]4 [D,B,]>[D,B,] x2 | [E,B,][C,C] [G,B,][F,=A,] B,2 | %6
 [D,B,]2 [G,B,]2 [E,G,][D,=B,] | [C,C][E,G,] F,2 F,2 | [B,,F,]4 z2 | %9
 [C,C]>[C,C] [D,=B,][D,B,] [D,C][=E,C] | [F,C]2 [F,C]2 [E,C][E,C] | [D,B,]>F, D2 [CE][F,C] | %12
 B,4 B,[A,B,] | [G,B,]2 [A,C]2 [G,B,][G,B,] | [F,B,]2 [E,B,]2 [D,=B,][D,B,] | %15
 [C,C][D,=B,] [E,C]2 [F,=A,]2 | [B,,B,]4 [B,D][B,D] | [E,E]2 [E,E]2 [A,C][A,C] | %18
 [B,F]2 [CE]2 [G,B,][G,B,] | [F,B,][E,B,] [B,,B,]2 [B,,A,]2 | !fermata![E,G,]4 |] %21
V:4
 x2 | x6 | x6 | x6 | x8 | x4 B,G, | x6 | x2 F,2 F,2 | x6 | x6 | x6 | x3/2 F,/ B,=B, x2 | B,4 B, x | %13
 x6 | x6 | x6 | x6 | x6 | x6 | x6 | x4 |] %21

